Obsidian-SemiLight/actions/24s/transform-move-horizontal.svg

<svg viewBox="0 0 24 24" xmlns="http://www.w3.org/2000/svg"><path d="m8 10-4 2 4 2zm8 0v4l4-2zm-4 1c-.554 0-1 .446-1 1s.446 1 1 1 1-.446 1-1-.446-1-1-1z" fill="#4d4d4d"/></svg>

<svg xmlns="http://www.w3.org/2000/svg" viewBox="0 0 24 24">
  <defs id="defs3051">
    <style type="text/css" id="current-color-scheme">
      .ColorScheme-Text {
        color:#4d4d4d;
      }
      </style>
  </defs>
 <path style="fill:currentColor;fill-opacity:1;stroke:none" 
     d="M 8 10 L 4 12 L 8 14 L 8 10 z M 16 10 L 16 14 L 20 12 L 16 10 z M 12 11 C 11.446 11 11 11.446 11 12 C 11 12.554 11.446 13 12 13 C 12.554 13 13 12.554 13 12 C 13 11.446 12.554 11 12 11 z "
     class="ColorScheme-Text"
     />
</svg>
